X:1
T:Title
%%score 1 { ( 2 5 ) | ( 3 4 ) }
L:1/8
Q:1/4=100
M:12/8
K:G
V:1 treble nm="Akkordion"
V:2 treble nm="Grand Piano"
V:5 treble 
V:3 bass 
V:4 bass 
V:1
 D3 DGA B B2- BBB | c3 G2 A B6 | d3 e2 d d B2- BBB | B3 BAG d6 | D3 DGA B B2- BBB | c3 G2 A B6 | %6
w: S.~G.~Smith * * * * * * * *||||||
 d3 cde d B2- BGA | B B2- B2 A G6 | z12 | z12 | z12 | z12 | z12 | z12 | z12 |[M:13/8] z13 |] %16
w: ||||||||||
V:2
 [B,D]DD DGA [DB]BB BBB | [EGc]cc GGA [DB]BB BBB | [GBd]dd eed [GBd]BB BBB | %3
 [^CGB]BB BAG [DFd]dd ddd | [B,D]DD DGA [DB]BB BBB | [EGc]cc GGA [DB]BB BBB | %6
 [GBd]dd [EGc]de [GBd]BB BGA | B B2- B2 A [G,B,G]6 | [DGB]3 [^CG_B]=Bc B G2- G3 | %9
 d3 ^cde d B2- B3 | [GB]3 [GB]AG [Fd] [Fd]2- [Fd][Fd]d | ^c3 cde [Fd]6 | %12
 [B,D]3 [B,D][B,G][CA] [DB] B2- B2- [FB] | [Ec]3 [EG]2 [^DA] [=DB]6 | %14
 [Gd]3 [EGc][Gd][Ge] d B2- BG[GA] |[M:13/8] [GB]3 [FB]3 [CDA][B,DG]-[B,DG]-[B,DG]- [B,DG]3 |] %16
V:3
 z B,B, B,B,C z[K:treble] DD DDD | z[K:treble] [EG][EG] EE^D[K:bass] z =DD DDD | %2
 z[K:treble] [GB][GB] [Gc][Gc][GB][K:bass] z DD DDD | %3
 z[K:treble] [^CG][CG] [CG][CG]C[K:bass] z[K:treble] FF FFF | z B,B, B,B,C z[K:treble] DD DD[D=F] | %5
 z[K:treble] [EG][EG] EE^D[K:bass] z =DD DDD | %6
 z[K:treble] [GB][GB][K:bass] z[K:treble] [GB][Gc][K:bass] z[K:treble] [DG][DG] [DG]E^D | %7
 [D,D] D2- D2 C G,,6 | G,3 z[K:treble] [DG][G,EG] [G,DG] [G,B,D]2- [G,B,D]3 | %9
 [G,B,G]3 [A,G][B,G][G,CG] [G,DG] [G,DG]2- [G,DG]3 | %10
 [E,E]3 E,-[E,A,F][E,B,E] [D,C] [D,A,]2- [D,A,][D,A,][K:treble][F,A,F] | %11
 [A,E]3 EF[A,G][K:bass] [D,A,]6 | [G,,G,]3 [G,,G,]2 [G,,G,] [G,,G,] [G,,G,]2- [G,,G,]3 | %13
 [C,G,]3 [C,G,]2 [C,G,] [G,,G,]6 | %14
 [G,B,]3 z B,[C,C][K:treble] [G,B,G] [G,DG]2- [G,DG][K:bass][E,B,][E,^C] | %15
[M:13/8] [D,D]3 [D,D]3 D,G,,-G,,-G,,- G,,3 |] %16
V:4
 [G,,G,]6 [G,,G,]6[K:treble] | [C,,C,]6[K:treble][K:bass] [G,,G,]6 | %2
 [G,,G,]6[K:treble][K:bass] [G,,G,]6 | [E,,E,]6[K:treble][K:bass] [D,,D,]6[K:treble] | %4
 [G,,G,]6 [G,,G,]6[K:treble] | [C,G,]6[K:treble][K:bass] [G,,G,]6 | %6
 [G,,G,]3[K:treble][K:bass] [C,,C,]3[K:treble][K:bass] [G,,G,]3[K:treble] z3 | z D,2- D,3 z6 | %8
 z3 .G,3[K:treble] z6 | z3 .G,3 z6 | z3 .G,3 z6[K:treble] | z3 .A,3[K:bass] z6 | x12 | x12 | %14
 z3 .C,3[K:treble] z6[K:bass] |[M:13/8] x13 |] %16
V:5
 x12 | x12 | x12 | x12 | x12 | x12 | x12 | x12 | x12 | x12 | x12 | x12 | z6 z D2- D2 z | x12 | %14
 x12 |[M:13/8] x13 |] %16

